X:1     %Music
T:Song of a Country Girl
B:Singing Together, Spring 1981, BBC Publications
F:http://www.folkinfo.org/songs
M:6/8     %Meter
L:1/8     %
K:C
A |c2 c d2 B |A A2- A z A |c2 c d2 B | A3- A z
w:I own a horse of beau-ty, * With shoes of sil-ver bright.
 A |c2 c d2 B |A2 B c2 A |G2 A G2 F | E3- E z z |
w: And he who grooms that silk-en mane Shall know my heart's de-light. *
E3/2F/E E2 D |C2 D E3 |E3/2F/E E2 D | C2 D E3 |
w: La-la-la-la-la-la-la-la, La-la-la-la-la-la-la-la, 
E2 E c3- |c2 B A2 G |A3- A z2 |]
w:La-la-la-*la-la-la-la. 